static/assets/images/exchanges/thruster.svg

<svg width="256" height="256" viewBox="0 0 256 256" fill="none" xmlns="http://www.w3.org/2000/svg">
<path fill-rule="evenodd" clip-rule="evenodd" d="M254.983 14.9627L239.901 236.767L239.562 237.098C238.873 242.359 236.971 246.691 233.76 249.902C219.233 264.428 181.759 252.164 139.055 222.018L149.725 211.348C160.549 218.864 170.91 225.101 180.472 229.908C193.371 236.396 204.041 239.894 211.963 240.863C220.111 241.858 222.688 239.958 223.253 239.393C223.816 238.83 225.716 236.253 224.721 228.105C223.752 220.184 220.254 209.512 213.768 196.612C201.611 172.438 180.331 143.144 152.287 114.213L23.368 243.136L25.8374 219.652L141.778 103.706C112.852 75.6612 83.5584 54.3779 59.3852 42.2223C46.4864 35.7363 35.8165 32.2383 27.8941 31.2695C19.7466 30.2742 17.1691 32.1743 16.6063 32.7371C16.0414 33.302 14.1413 35.8797 15.1366 44.0276C16.1076 51.9503 19.6032 62.6207 26.0912 75.52C30.8976 85.0824 37.134 95.4438 44.6503 106.269L33.9805 116.939C3.83559 74.2333 -8.4276 36.758 6.09755 22.2301C9.31065 19.0168 13.647 17.1145 18.9146 16.4259C19.0176 16.3156 19.1236 16.2074 19.2324 16.1015L241.036 1.01517L256 0L254.983 14.9627ZM160.148 21.4157L228.731 16.7503L196.419 49.0659C183.376 36.6565 170.645 27.6855 160.148 21.4135M131.239 23.3776L64.0481 27.9481C90.3443 40.8011 121.725 63.5409 152.287 93.1972L185.908 59.5751C171.828 46.219 158.179 37.1575 147.754 31.3357C143.255 28.8052 138.626 26.512 133.887 24.4656C132.851 24.0243 131.968 23.6601 131.239 23.3776ZM196.326 70.1726L162.796 103.704C192.46 134.276 215.205 165.667 228.055 191.971L232.769 122.626C232.451 121.938 232.053 121.11 231.575 120.143C229.287 115.563 226.798 111.086 224.116 106.725C218.098 96.8783 209.053 83.9481 196.328 70.1704M206.844 59.6568C219.135 72.9114 228.216 85.4708 234.609 95.563L239.255 27.2419L206.844 59.6568ZM85.6372 100.308L35.9842 149.963L33.517 173.447L99.7917 107.169L85.6372 100.308ZM148.827 156.208L82.6338 222.402L106.116 219.935L156.652 169.395L148.827 156.208Z" fill="url(#paint0_linear_9884_1106)"/>
<defs>
<linearGradient id="paint0_linear_9884_1106" x1="0.000159135" y1="6.55458e-06" x2="256" y2="256" gradientUnits="userSpaceOnUse">
<stop stop-color="#FFB0AB"/>
<stop offset="0.464" stop-color="#FF6D63"/>
<stop offset="1" stop-color="#FF4337"/>
</linearGradient>
</defs>
</svg>

<svg xmlns="http://www.w3.org/2000/svg" fill="none" viewBox="0 0 256 256"><path fill="url(#paint0_linear_9884_1106)" fill-rule="evenodd" d="m254.983 14.963-15.082 221.804-.339.331c-.689 5.261-2.591 9.593-5.802 12.804-14.527 14.526-52.001 2.262-94.705-27.884l10.67-10.67c10.824 7.516 21.185 13.753 30.747 18.56 12.899 6.488 23.569 9.986 31.491 10.955 8.148.995 10.725-.905 11.29-1.47.563-.563 2.463-3.14 1.468-11.288-.969-7.921-4.467-18.593-10.953-31.493-12.157-24.174-33.437-53.468-61.481-82.399L23.368 243.136l2.47-23.484 115.94-115.946c-28.926-28.045-58.22-49.328-82.393-61.484-12.899-6.486-23.568-9.984-31.49-10.952-8.148-.996-10.726.904-11.289 1.467-.565.565-2.465 3.143-1.47 11.29.972 7.923 4.467 18.594 10.955 31.493 4.807 9.562 11.043 19.924 18.56 30.749l-10.67 10.67C3.835 74.233-8.428 36.758 6.098 22.23c3.213-3.213 7.549-5.116 12.817-5.804a10 10 0 0 1 .317-.324L241.036 1.015 256 0zm-94.835 6.453 68.583-4.666-32.312 32.316c-13.043-12.41-25.774-21.38-36.271-27.653m-28.909 1.965-67.19 4.57c26.295 12.853 57.676 35.593 88.238 65.25l33.621-33.623c-14.08-13.356-27.729-22.418-38.154-28.24a148 148 0 0 0-13.867-6.87 90 90 0 0 0-2.648-1.087m65.087 46.795-33.53 33.531c29.664 30.572 52.409 61.963 65.259 88.267l4.714-69.345q-.477-1.032-1.194-2.483a174 174 0 0 0-7.459-13.418c-6.018-9.847-15.063-22.777-27.788-36.555m10.516-10.513c12.291 13.254 21.372 25.814 27.765 35.906l4.646-68.321zM85.637 100.308l-49.653 49.655-2.467 23.484 66.275-66.278zm63.19 55.9-66.193 66.194 23.482-2.467 50.536-50.54z" clip-rule="evenodd"/><defs><linearGradient id="paint0_linear_9884_1106" x1="0" x2="256" y1="0" y2="256" gradientUnits="userSpaceOnUse"><stop stop-color="#FFB0AB"/><stop offset=".464" stop-color="#FF6D63"/><stop offset="1" stop-color="#FF4337"/></linearGradient></defs></svg>
